Catalina-light/apps/scalable/anki.svg

<?xml version="1.0" encoding="UTF-8" standalone="no"?>
<svg
   xmlns:dc="http://purl.org/dc/elements/1.1/"
   xmlns:cc="http://creativecommons.org/ns#"
   xmlns:rdf="http://www.w3.org/1999/02/22-rdf-syntax-ns#"
   xmlns:svg="http://www.w3.org/2000/svg"
   xmlns="http://www.w3.org/2000/svg"
   xmlns:xlink="http://www.w3.org/1999/xlink"
   xmlns:sodipodi="http://sodipodi.sourceforge.net/DTD/sodipodi-0.dtd"
   xmlns:inkscape="http://www.inkscape.org/namespaces/inkscape"
   height="136.53333"
   viewBox="0 0 136.53333 136.53333"
   width="136.53333"
   version="1.1"
   id="svg59"
   sodipodi:docname="anki.svg"
   inkscape:version="0.92.4 5da689c313, 2019-01-14">
  <metadata
     id="metadata65">
    <rdf:RDF>
      <cc:Work
         rdf:about="">
        <dc:format>image/svg+xml</dc:format>
        <dc:type
           rdf:resource="http://purl.org/dc/dcmitype/StillImage" />
        <dc:title></dc:title>
      </cc:Work>
    </rdf:RDF>
  </metadata>
  <defs
     id="defs63">
    <linearGradient
       inkscape:collect="always"
       id="linearGradient865">
      <stop
         style="stop-color:#0070c4;stop-opacity:1"
         offset="0"
         id="stop861" />
      <stop
         style="stop-color:#26d0ea;stop-opacity:1"
         offset="1"
         id="stop863" />
    </linearGradient>
    <linearGradient
       inkscape:collect="always"
       id="linearGradient857">
      <stop
         style="stop-color:#f1f1f1;stop-opacity:1"
         offset="0"
         id="stop853" />
      <stop
         style="stop-color:#d9dad9;stop-opacity:1"
         offset="1"
         id="stop855" />
    </linearGradient>
    <linearGradient
       inkscape:collect="always"
       xlink:href="#linearGradient857"
       id="linearGradient859"
       x1="73.908607"
       y1="8.693965"
       x2="79.908531"
       y2="137.96426"
       gradientUnits="userSpaceOnUse" />
    <linearGradient
       inkscape:collect="always"
       xlink:href="#linearGradient865"
       id="linearGradient867"
       x1="68.113281"
       y1="119.14643"
       x2="68.113281"
       y2="8.78125"
       gradientUnits="userSpaceOnUse" />
  </defs>
  <sodipodi:namedview
     pagecolor="#ffffff"
     bordercolor="#666666"
     borderopacity="1"
     objecttolerance="10"
     gridtolerance="10"
     guidetolerance="10"
     inkscape:pageopacity="0"
     inkscape:pageshadow="2"
     inkscape:window-width="1920"
     inkscape:window-height="1027"
     id="namedview61"
     showgrid="false"
     inkscape:zoom="1.3009644"
     inkscape:cx="59.866851"
     inkscape:cy="33.651566"
     inkscape:window-x="0"
     inkscape:window-y="30"
     inkscape:window-maximized="1"
     inkscape:current-layer="svg59"
     showguides="false" />
  <linearGradient
     id="a">
    <stop
       offset="0"
       stop-color="#9760ef"
       id="stop2" />
    <stop
       offset="1"
       stop-color="#c054f2"
       stop-opacity="0"
       id="stop4" />
  </linearGradient>
  <linearGradient
     id="b">
    <stop
       offset="0"
       stop-color="#17c7e7"
       id="stop7" />
    <stop
       offset="1"
       stop-color="#c054f2"
       stop-opacity="0"
       id="stop9" />
  </linearGradient>
  <linearGradient
     id="c"
     gradientUnits="userSpaceOnUse"
     x1="62.04421"
     x2="66.81698"
     y1="5.831234"
     y2="47.148641">
    <stop
       offset="0"
       stop-color="#e83c2b"
       id="stop12" />
    <stop
       offset="1"
       stop-color="#c054f2"
       stop-opacity=".792157"
       id="stop14" />
  </linearGradient>
  <linearGradient
     id="d"
     gradientUnits="userSpaceOnUse"
     x1="88.22553"
     x2="38.18116"
     xlink:href="#b"
     y1="119.556361"
     y2="35.285226"
     gradientTransform="translate(-227.27608,-22.607353)" />
  <linearGradient
     id="e"
     gradientUnits="userSpaceOnUse"
     x1="61.6262"
     x2="95.3216"
     y1="48.640058"
     y2="103.021981">
    <stop
       offset="0"
       stop-color="#f66456"
       id="stop18" />
    <stop
       offset="1"
       stop-color="#d9493e"
       stop-opacity="0"
       id="stop20" />
  </linearGradient>
  <linearGradient
     id="f"
     gradientUnits="userSpaceOnUse"
     x1="32.31499"
     x2="61.76681"
     xlink:href="#a"
     y1="92.483823"
     y2="57.318029" />
  <linearGradient
     id="g"
     gradientUnits="userSpaceOnUse"
     x1="96.53194"
     x2="61.76681"
     xlink:href="#b"
     y1="97.690601"
     y2="59.053621" />
  <linearGradient
     id="h"
     gradientUnits="userSpaceOnUse"
     x1="139.34325"
     x2="61.76681"
     xlink:href="#a"
     y1="-7.023515"
     y2="59.053621" />
  <filter
     id="i"
     color-interpolation-filters="sRGB"
     height="1.108812"
     width="1.139866"
     x="-.069933"
     y="-.054406">
    <feGaussianBlur
       stdDeviation="1.9764485"
       id="feGaussianBlur26" />
  </filter>
  <path
     style="color:#000000;font-style:normal;font-variant:normal;font-weight:normal;font-stretch:normal;font-size:medium;line-height:normal;font-family:sans-serif;font-variant-ligatures:normal;font-variant-position:normal;font-variant-caps:normal;font-variant-numeric:normal;font-variant-alternates:normal;font-feature-settings:normal;text-indent:0;text-align:start;text-decoration:none;text-decoration-line:none;text-decoration-style:solid;text-decoration-color:#000000;letter-spacing:normal;word-spacing:normal;text-transform:none;writing-mode:lr-tb;direction:ltr;text-orientation:mixed;dominant-baseline:auto;baseline-shift:baseline;text-anchor:start;white-space:normal;shape-padding:0;clip-rule:nonzero;display:inline;overflow:visible;visibility:visible;opacity:1;isolation:auto;mix-blend-mode:normal;color-interpolation:sRGB;color-interpolation-filters:linearRGB;solid-color:#000000;solid-opacity:1;vector-effect:none;fill:url(#linearGradient859);fill-opacity:1;fill-rule:nonzero;stroke:none;stroke-width:6;stroke-linecap:butt;stroke-linejoin:miter;stroke-miterlimit:4;stroke-dasharray:none;stroke-dashoffset:0;stroke-opacity:1;color-rendering:auto;image-rendering:auto;shape-rendering:auto;text-rendering:auto;enable-background:accumulate"
     d="m 68.113281,2.2167969 c -36.979431,0 -67.0214841,30.0420531 -67.0214841,67.0214841 0,36.979429 30.0420531,67.021489 67.0214841,67.021489 36.979429,0 67.021489,-30.04206 67.021489,-67.021489 0,-36.979431 -30.04206,-67.0214841 -67.021489,-67.0214841 z"
     id="circle29"
     inkscape:connector-curvature="0"
     sodipodi:nodetypes="sssss" />
  <path
     style="opacity:1;fill:url(#linearGradient867);fill-opacity:1;stroke:none;stroke-width:3.79999995;stroke-linecap:round;stroke-linejoin:round;stroke-miterlimit:4;stroke-dasharray:none;stroke-dashoffset:0;stroke-opacity:0.05323193;paint-order:fill markers stroke"
     d="M 68.113281,8.78125 C 34.723662,8.7809529 7.6559529,35.848662 7.65625,69.238281 7.655954,102.6279 34.723662,129.69561 68.113281,129.69531 101.5029,129.69561 128.57061,102.6279 128.57031,69.238281 128.57061,35.848662 101.5029,8.780954 68.113281,8.78125 Z"
     id="path839"
     inkscape:connector-curvature="0"
     sodipodi:nodetypes="ccccc" />
  <g
     style="fill:#ffffff;stroke:#ffffff;stroke-width:7.19999981"
     id="g866"
     transform="matrix(0.13800794,0,0,0.13800794,84.519685,66.409799)" />
  <path
     id="path856-6"
     d="m 100.18314,62.357535 c 0,-0.950959 -0.719115,-1.541879 -2.159285,-1.773233 L 78.674869,57.770687 70.002199,40.232312 c -0.487782,-1.053627 -1.117972,-1.580203 -1.888675,-1.580203 -0.770706,0 -1.400422,0.526576 -1.888675,1.580203 L 57.551703,57.770687 38.20177,60.584302 c -1.438742,0.231349 -2.158348,0.822274 -2.158348,1.773233 0,0.539826 0.321244,1.156767 0.963735,1.850354 l 14.030698,13.645109 -3.314643,19.272816 c -0.05157,0.360039 -0.07713,0.617415 -0.07713,0.771176 0,0.539824 0.134839,0.995438 0.404511,1.368718 0.269676,0.37282 0.67419,0.55875 1.214016,0.55875 0.462704,0 0.976508,-0.15328 1.541879,-0.46223 l 17.30655,-9.097529 17.307967,9.097529 c 0.540297,0.30847 1.0541,0.46223 1.541408,0.46223 0.515222,0 0.906488,-0.18547 1.176164,-0.55875 0.269203,-0.37281 0.404041,-0.828894 0.404041,-1.368718 0,-0.33402 -0.0127,-0.59092 -0.0388,-0.771176 L 85.18871,77.852998 99.180615,64.207889 c 0.66898,-0.668038 1.002525,-1.28498 1.002525,-1.850354 z"
     inkscape:connector-curvature="0"
     style="fill-opacity:1;stroke-width:0.62329215;fill:#ffffff;opacity:1" />
</svg>

<svg width="136.53" height="136.53" version="1.1" viewBox="0 0 136.53 136.53" xmlns="http://www.w3.org/2000/svg">
<defs>
<linearGradient id="linearGradient859" x1="73.909" x2="79.909" y1="8.694" y2="137.96" gradientUnits="userSpaceOnUse"/>
<linearGradient id="linearGradient867" x1="68.113" x2="68.113" y1="119.15" y2="8.7812" gradientUnits="userSpaceOnUse"/>
</defs>
<filter x="-.069933" y="-.054406" width="1.1399" height="1.1088" color-interpolation-filters="sRGB">
<feGaussianBlur stdDeviation="1.9764485"/>
</filter>
<path d="m68.113 2.2168c-36.979 0-67.021 30.042-67.021 67.021 0 36.979 30.042 67.021 67.021 67.021 36.979 0 67.021-30.042 67.021-67.021 0-36.979-30.042-67.021-67.021-67.021z" color="#000000" color-rendering="auto" dominant-baseline="auto" fill="url(#linearGradient859)" image-rendering="auto" shape-rendering="auto" solid-color="#000000" style="font-feature-settings:normal;font-variant-alternates:normal;font-variant-caps:normal;font-variant-ligatures:normal;font-variant-numeric:normal;font-variant-position:normal;isolation:auto;mix-blend-mode:normal;shape-padding:0;text-decoration-color:#000000;text-decoration-line:none;text-decoration-style:solid;text-indent:0;text-orientation:mixed;text-transform:none;white-space:normal"/>
<path d="m68.113 8.7812c-33.39-2.971e-4 -60.457 27.067-60.457 60.457-2.96e-4 33.39 27.067 60.457 60.457 60.457 33.39 3e-4 60.457-27.067 60.457-60.457 3e-4 -33.39-27.067-60.457-60.457-60.457z" fill="url(#linearGradient867)" style="paint-order:fill markers stroke"/>
<path d="m100.18 62.358c0-0.95096-0.71912-1.5419-2.1593-1.7732l-19.349-2.8136-8.6727-17.538c-0.48778-1.0536-1.118-1.5802-1.8887-1.5802-0.77071 0-1.4004 0.52658-1.8887 1.5802l-8.6731 17.538-19.35 2.8136c-1.4387 0.23135-2.1583 0.82227-2.1583 1.7732 0 0.53983 0.32124 1.1568 0.96374 1.8504l14.031 13.645-3.3146 19.273c-0.05157 0.36004-0.07713 0.61742-0.07713 0.77118 0 0.53982 0.13484 0.99544 0.40451 1.3687 0.26968 0.37282 0.67419 0.55875 1.214 0.55875 0.4627 0 0.97651-0.15328 1.5419-0.46223l17.307-9.0975 17.308 9.0975c0.5403 0.30847 1.0541 0.46223 1.5414 0.46223 0.51522 0 0.90649-0.18547 1.1762-0.55875 0.2692-0.37281 0.40404-0.82889 0.40404-1.3687 0-0.33402-0.0127-0.59092-0.0388-0.77118l-3.3151-19.273 13.992-13.645c0.66898-0.66804 1.0025-1.285 1.0025-1.8504z" fill="#fff" stroke-width=".62329"/>
</svg>
